src/OnboardingSPA/static/icons/site-features/bookingcalendar_light.svg

<svg fill="none" height="17" viewBox="0 0 18 17" width="18" xmlns="http://www.w3.org/2000/svg" xmlns:xlink="http://www.w3.org/1999/xlink"><clipPath id="a"><path d="m0 0h18v17h-18z"/></clipPath><g clip-path="url(#a)" stroke="#fff" stroke-linecap="square" stroke-width="1.5"><path clip-rule="evenodd" d="m.666656 14.543c0 .7934.677774 1.4356 1.515154 1.4356h13.63639c.8373 0 1.5151-.6422 1.5151-1.4356v-11.48441h-16.666644z" fill-rule="evenodd"/><path d="m.666656 6.45898h16.666644"/><path d="m10 3.73953v-2.72"/><path d="m7.33331 3.73953v-2.72"/><path d="m13.3333 3.73953v-2.72"/><path d="m4.66666 3.73953v-2.72"/><path d="m4.66165 10.5391h.00945"/><path d="m4.66165 13.2598h.00945"/><path d="m7.32831 10.5391h.00944"/><path d="m7.32831 13.2598h.00944"/><path d="m9.995 10.5391h.0094"/><path d="m9.995 13.2598h.0094"/><path d="m13.3283 10.5391h.0095"/><path d="m13.3283 13.2598h.0095"/></g></svg>

<svg width="18" height="17" viewBox="0 0 18 17" fill="none" xmlns="http://www.w3.org/2000/svg">
<g clip-path="url(#clip0_35371_6741)">
<path fill-rule="evenodd" clip-rule="evenodd" d="M0.666656 14.543C0.666656 15.3364 1.34443 15.9786 2.18181 15.9786H15.8182C16.6555 15.9786 17.3333 15.3364 17.3333 14.543V3.05859H0.666656V14.543Z" stroke="white" stroke-width="1.5" stroke-linecap="square"/>
<path d="M0.666656 6.45898H17.3333" stroke="white" stroke-width="1.5" stroke-linecap="square"/>
<path d="M10 3.73953V1.01953" stroke="white" stroke-width="1.5" stroke-linecap="square"/>
<path d="M7.33331 3.73953V1.01953" stroke="white" stroke-width="1.5" stroke-linecap="square"/>
<path d="M13.3333 3.73953V1.01953" stroke="white" stroke-width="1.5" stroke-linecap="square"/>
<path d="M4.66666 3.73953V1.01953" stroke="white" stroke-width="1.5" stroke-linecap="square"/>
<path d="M4.66165 10.5391H4.6711" stroke="white" stroke-width="1.5" stroke-linecap="square"/>
<path d="M4.66165 13.2598H4.6711" stroke="white" stroke-width="1.5" stroke-linecap="square"/>
<path d="M7.32831 10.5391H7.33775" stroke="white" stroke-width="1.5" stroke-linecap="square"/>
<path d="M7.32831 13.2598H7.33775" stroke="white" stroke-width="1.5" stroke-linecap="square"/>
<path d="M9.995 10.5391H10.0044" stroke="white" stroke-width="1.5" stroke-linecap="square"/>
<path d="M9.995 13.2598H10.0044" stroke="white" stroke-width="1.5" stroke-linecap="square"/>
<path d="M13.3283 10.5391H13.3378" stroke="white" stroke-width="1.5" stroke-linecap="square"/>
<path d="M13.3283 13.2598H13.3378" stroke="white" stroke-width="1.5" stroke-linecap="square"/>
</g>
<defs>
<clipPath id="clip0_35371_6741">
<rect width="18" height="17" fill="white"/>
</clipPath>
</defs>
</svg>
